X:47
T:All Alive and Merry
S:John Moore's Book 1
Z:Transcribed by David Jacobs  April 2021
%%VWML: Moore1-4493-p30-0
F:http://www.vwml.org/record/Moore1/4493/p30
M:6/8
L:1/8
K:G
B|g3de=f|e3cde|d2cB2c|(d3d2):|
|:d|A3ABc|(B3B2)g|D3def|(e3e2)g|f2ed2e|d2FG2g|g2cB2A|(G3G2):|]

